images/decorative/skills/css3-icon.svg

<svg width="512" height="512" fill="none" xmlns="http://www.w3.org/2000/svg"><path fill-rule="evenodd" clip-rule="evenodd" d="M71.086 460.816 30 0h451.474l-41.13 460.741L255.464 512 71.086 460.816Z" fill="#0071BC"/><path fill-rule="evenodd" clip-rule="evenodd" d="m256.116 472.795 149.207-41.047 34.959-393.372H256.116v434.419Z" fill="#29ABE2"/><path fill-rule="evenodd" clip-rule="evenodd" d="m124.047 207.678 4.949 56.434 127.12-56.434v-56.526l-132.069 56.526Z" fill="#B3B3B3"/><path fill-rule="evenodd" clip-rule="evenodd" d="m396.906 90.814-140.79 60.338v56.526l135.936-60.43 4.854-56.434ZM256.116 355.337l-.437.066-63.042-16.931-4.119-45.014H131.78l7.918 88.681 115.969 32.11.449-.106v-58.806Z" fill="#E6E6E6"/><path fill-rule="evenodd" clip-rule="evenodd" d="M256.116 207.678v56.434h69.022l-6.274 73.784-62.748 17.49v58.801l115.585-32.11 15.22-174.399H256.116Z" fill="#fff"/><path fill-rule="evenodd" clip-rule="evenodd" d="M256.116 207.678H124.047l4.949 56.434h127.12v-56.434ZM256.116 147.248V90.814H114.013l5.008 56.434h137.095Z" fill="#E6E6E6"/><path fill-rule="evenodd" clip-rule="evenodd" d="M256.116 90.814v56.434h135.936l4.854-56.434h-140.79Z" fill="#fff"/></svg>

<svg width="512" height="512" viewBox="0 0 512 512" fill="none" xmlns="http://www.w3.org/2000/svg">
<path fill-rule="evenodd" clip-rule="evenodd" d="M71.0864 460.816L30 0H481.474L440.344 460.741L255.464 512L71.0864 460.816Z" fill="#0071BC"/>
<path fill-rule="evenodd" clip-rule="evenodd" d="M256.116 472.795L405.323 431.748L440.282 38.3764H256.116V472.795Z" fill="#29ABE2"/>
<path fill-rule="evenodd" clip-rule="evenodd" d="M124.047 207.678L128.996 264.112L256.116 207.678V151.152L124.047 207.678Z" fill="#B3B3B3"/>
<path fill-rule="evenodd" clip-rule="evenodd" d="M396.906 90.8141L256.116 151.152V207.678L392.052 147.248L396.906 90.8141Z" fill="#E6E6E6"/>
<path fill-rule="evenodd" clip-rule="evenodd" d="M256.116 355.337L255.679 355.403L192.637 338.472L188.518 293.458H131.78L139.698 382.139L255.667 414.249L256.116 414.143V355.337Z" fill="#E6E6E6"/>
<path fill-rule="evenodd" clip-rule="evenodd" d="M256.116 207.678V264.112H325.138L318.864 337.896L256.116 355.386V414.187L371.701 382.077L386.921 207.678H256.116Z" fill="white"/>
<path fill-rule="evenodd" clip-rule="evenodd" d="M256.116 207.678H124.047L128.996 264.112H256.116V207.678Z" fill="#E6E6E6"/>
<path fill-rule="evenodd" clip-rule="evenodd" d="M256.116 147.248V90.8141H255.543H114.013L119.021 147.248H256.116Z" fill="#E6E6E6"/>
<path fill-rule="evenodd" clip-rule="evenodd" d="M256.116 90.8141V146.541V147.248H392.052L396.906 90.8141H256.116Z" fill="white"/>
</svg>
